src/components/ProtocolIcon/tezos.svg

<svg width="16" height="16" viewBox="0 0 16 16" fill="none" xmlns="http://www.w3.org/2000/svg">
<path d="M9.6392 16C8.48826 16 7.64997 15.7251 7.12332 15.1752C6.59718 14.6256 6.33385 14.0328 6.33385 13.3976C6.33385 13.1653 6.37964 12.9699 6.47146 12.8111C6.56105 12.6544 6.69112 12.5246 6.84811 12.4352C7.00722 12.3435 7.203 12.2978 7.43572 12.2978C7.66844 12.2978 7.86397 12.3435 8.02333 12.4352C8.18244 12.5268 8.3079 12.6523 8.39973 12.8111C8.49155 12.9699 8.53733 13.1653 8.53733 13.3976C8.53733 13.6786 8.47005 13.9076 8.33548 14.0848C8.20065 14.262 8.04154 14.3779 7.8579 14.4332C8.01726 14.6528 8.26819 14.8086 8.61094 14.9003C8.9537 14.9982 9.29645 15.0469 9.6392 15.0469C10.1165 15.0469 10.5481 14.9187 10.9338 14.6622C11.3193 14.4054 11.6041 14.0267 11.7878 13.5258C11.9714 13.0249 12.0633 12.4566 12.0633 11.8212C12.0633 11.131 11.9621 10.5412 11.7602 10.0527C11.5642 9.55784 11.2735 9.19126 10.8878 8.95293C10.5139 8.71812 10.0809 8.59423 9.6392 8.59569C9.34527 8.59569 8.97823 8.71788 8.53733 8.96227L7.7294 9.36546V8.96227L11.3654 4.12377H6.33385V9.14531C6.33385 9.56087 6.42568 9.90296 6.60932 10.1718C6.79297 10.4407 7.0745 10.575 7.45419 10.575C7.74761 10.575 8.0294 10.4773 8.2988 10.2817C8.56992 10.0843 8.80578 9.84278 8.99644 9.56718C9.02098 9.51189 9.05159 9.47225 9.08827 9.44776C9.12126 9.41869 9.16365 9.40246 9.20766 9.40207C9.27495 9.40207 9.35437 9.43564 9.44645 9.50305C9.5322 9.6005 9.57495 9.71361 9.57495 9.84186C9.56441 9.92824 9.54904 10.014 9.52891 10.0986C9.32098 10.5629 9.03312 10.9171 8.66583 11.1615C8.30826 11.4029 7.88588 11.5307 7.45419 11.5281C6.36446 11.5281 5.61142 11.3142 5.19531 10.8868C4.7792 10.4589 4.57102 9.87847 4.57102 9.14556V4.12377H2V3.18889H4.57102V1.06313L3.98341 0.47615V0H5.6911L6.3336 0.32972V3.18889L12.9812 3.17071L13.6424 3.83041L9.56584 7.89914C9.81264 7.80096 10.0725 7.73922 10.3371 7.71585C10.7777 7.71585 11.2735 7.85647 11.8245 8.13747C12.3815 8.4124 12.81 8.79135 13.1097 9.27356C13.4097 9.75022 13.6025 10.2084 13.6882 10.6482C13.7801 11.0883 13.8261 11.4791 13.8261 11.8212C13.8261 12.6033 13.6607 13.3302 13.3303 14.0025C12.9997 14.6743 12.4978 15.1752 11.8245 15.5052C11.1511 15.8351 10.4226 16 9.6392 16Z" fill="#2C7DF7"/>
</svg>

<svg xmlns="http://www.w3.org/2000/svg" width="16" height="16" fill="none"><path fill="#2C7DF7" d="M9.64 16q-1.727 0-2.517-.825t-.79-1.777q0-.349.138-.587c.09-.157.22-.286.377-.376a1.16 1.16 0 0 1 .588-.137q.348 0 .587.137.24.138.377.376.138.238.137.587 0 .42-.202.687a.94.94 0 0 1-.477.348q.24.33.753.467.514.147 1.028.147.717 0 1.295-.385t.854-1.136q.275-.752.275-1.705 0-1.035-.303-1.768-.293-.743-.872-1.1a2.33 2.33 0 0 0-1.249-.357q-.44 0-1.102.366l-.808.403v-.403l3.636-4.838H6.334v5.021q0 .624.275 1.027.276.403.845.403.44 0 .845-.293c.27-.198.507-.44.697-.715a.27.27 0 0 1 .092-.12.18.18 0 0 1 .12-.045q.1 0 .238.101.129.146.129.339-.015.13-.046.257-.312.696-.863 1.063c-.358.24-.78.369-1.212.366q-1.635 0-2.259-.641-.624-.643-.624-1.741V4.124H2v-.935h2.571V1.063L3.983.476V0h1.708l.643.33v2.859l6.647-.018.661.66-4.076 4.068q.372-.148.771-.183.66 0 1.488.421.835.413 1.285 1.137.45.714.578 1.374.138.66.138 1.173 0 1.174-.496 2.182a3.2 3.2 0 0 1-1.505 1.502A4.9 4.9 0 0 1 9.639 16"/></svg>
